svg/sort_numeric_ascending.svg

<?xml version="1.0" encoding="UTF-8"?><!DOCTYPE svg PUBLIC "-//W3C//DTD SVG 1.1//EN" "http://www.w3.org/Graphics/SVG/1.1/DTD/svg11.dtd"><svg xmlns="http://www.w3.org/2000/svg" xmlns:xlink="http://www.w3.org/1999/xlink" version="1.1" id="mdi-sort-numeric-ascending" width="24" height="24" viewBox="0 0 24 24"><path d="M19 17H22L18 21L14 17H17V3H19V17M9 13H7C5.9 13 5 13.9 5 15V16C5 17.11 5.9 18 7 18H9V19H5V21H9C10.11 21 11 20.11 11 19V15C11 13.9 10.11 13 9 13M9 16H7V15H9V16M9 3H7C5.9 3 5 3.9 5 5V9C5 10.11 5.9 11 7 11H9C10.11 11 11 10.11 11 9V5C11 3.9 10.11 3 9 3M9 9H7V5H9V9Z" /></svg>

<svg xmlns="http://www.w3.org/2000/svg" viewBox="0 0 24 24"><path d="M19 17h3l-4 4-4-4h3V3h2zM9 13H7c-1.1 0-2 .9-2 2v1a2 2 0 0 0 2 2h2v1H5v2h4c1.11 0 2-.89 2-2v-4a2 2 0 0 0-2-2m0 3H7v-1h2zM9 3H7c-1.1 0-2 .9-2 2v4a2 2 0 0 0 2 2h2c1.11 0 2-.89 2-2V5a2 2 0 0 0-2-2m0 6H7V5h2z"/></svg>
